svg/french_fries.svg

<svg xmlns="http://www.w3.org/2000/svg" viewBox="0 0 24 24"><path d="M18 11V6h-3V4h-3V2H8v3H6v6H5l2 11h10l2-11zm-2.14 0c-.16.61-.46 1.16-.86 1.62v-4l2 1V11zM17 7v1.5l-2-1V7zm-5-2h2v3.5l-2 1zm0 5.62 2-1v3.83c-.59.35-1.27.55-2 .55zm-1 3.24c-.79-.21-1.5-.64-2-1.24v-3l2-1zM9 3h2v4.5L10 8V5H9zM7 6h2v2.5L8 9v2H7z"/></svg>

<svg xmlns="http://www.w3.org/2000/svg" id="mdi-french-fries" viewBox="0 0 24 24"><path d="M18 11V6H15V4H12V2H8V5H6V11H5L7 22H17L19 11H18M15.86 11C15.7 11.61 15.4 12.16 15 12.62V8.62L17 9.62V11H15.86M17 7V8.5L15 7.5V7H17M12 5H14V8.5L12 9.5V5M12 10.62L14 9.62V13.45C13.41 13.8 12.73 14 12 14V10.62M11 13.86C10.21 13.65 9.5 13.22 9 12.62V9.62L11 8.62V13.86M9 3H11V7.5L10 8V5H9V3M7 6H9V8.5L8 9V11H7V6Z" /></svg>
